austria/municipalities/70630.svg

<?xml version="1.0" encoding="UTF-8"?>
<!DOCTYPE svg PUBLIC "-//W3C//DTD SVG 1.1//EN" "http://www.w3.org/Graphics/SVG/1.1/DTD/svg11.dtd">
<svg xmlns="http://www.w3.org/2000/svg" version="1.1" width="166px" height="192px" style="shape-rendering:geometricPrecision; text-rendering:geometricPrecision; image-rendering:optimizeQuality; fill-rule:evenodd; clip-rule:evenodd" xmlns:xlink="http://www.w3.org/1999/xlink">
<g><path style="opacity:1" fill="#000000" d="M -0.5,-0.5 C 54.8333,-0.5 110.167,-0.5 165.5,-0.5C 165.5,39.5 165.5,79.5 165.5,119.5C 161.89,140.883 151.89,158.716 135.5,173C 130.672,176.581 125.672,179.915 120.5,183C 112.336,186.554 104.002,189.388 95.5,191.5C 86.8333,191.5 78.1667,191.5 69.5,191.5C 30.064,182.064 6.73062,157.397 -0.5,117.5C -0.5,78.1667 -0.5,38.8333 -0.5,-0.5 Z"/></g>
<g><path style="opacity:1" fill="#003265" d="M 138.5,146.5 C 134.5,143.833 131.167,140.5 128.5,136.5C 124.895,131.226 120.562,126.559 115.5,122.5C 114.833,122.5 114.5,122.167 114.5,121.5C 110.895,116.226 106.562,111.559 101.5,107.5C 98.8549,106.188 96.8549,104.188 95.5,101.5C 91.561,95.8918 86.8943,90.8918 81.5,86.5C 77.5678,81.3925 73.4012,76.3925 69,71.5C 67.2228,69.2101 65.0562,67.5434 62.5,66.5C 58.2337,61.0589 53.7337,55.7255 49,50.5C 47.871,48.8588 46.371,47.8588 44.5,47.5C 43.5,47.1667 42.8333,46.5 42.5,45.5C 40.5698,41.8998 37.9031,38.8998 34.5,36.5C 29.8206,32.8196 25.8206,28.4862 22.5,23.5C 20.8333,21.1667 18.8333,19.1667 16.5,17.5C 14.1667,15.8333 12.1667,13.8333 10.5,11.5C 9.11771,8.6057 7.11771,6.1057 4.5,4C 56.8323,3.50001 109.166,3.33334 161.5,3.5C 161.667,42.8347 161.5,82.1681 161,121.5C 159.321,133.849 154.654,144.849 147,154.5C 144.297,151.629 141.464,148.962 138.5,146.5 Z"/></g>
<g><path style="opacity:1" fill="#fe9800" d="M 10.5,11.5 C 12.1667,13.8333 14.1667,15.8333 16.5,17.5C 17.5,20.5 19.5,22.5 22.5,23.5C 25.8206,28.4862 29.8206,32.8196 34.5,36.5C 36.4302,40.1002 39.0969,43.1002 42.5,45.5C 42.8333,46.5 43.5,47.1667 44.5,47.5C 49.7967,54.4644 55.7967,60.7977 62.5,66.5C 64.0767,68.5837 65.91,70.5837 68,72.5C 68.6667,73.1667 68.6667,73.8333 68,74.5C 66.4422,72.6411 64.6089,71.1411 62.5,70C 59.3684,67.9851 56.2018,66.8184 53,66.5C 50.6667,67.8333 48.3333,69.1667 46,70.5C 44.3333,67.8333 42.6667,65.1667 41,62.5C 39.7063,63.8544 39.5396,65.1877 40.5,66.5C 35.4069,66.693 31.0736,68.5263 27.5,72C 23.1789,71.5675 19.8456,73.0675 17.5,76.5C 19.0777,77.2978 20.7444,77.7978 22.5,78C 21.376,78.2492 20.376,78.7492 19.5,79.5C 25.7562,80.8923 32.0895,81.559 38.5,81.5C 38.6602,83.1992 38.4935,84.8659 38,86.5C 35.2516,91.6657 32.2516,96.6657 29,101.5C 28.308,104.936 27.308,108.27 26,111.5C 22.8276,107.159 20.1609,102.492 18,97.5C 15.8195,94.7859 13.1528,92.7859 10,91.5C 9.68238,93.0609 8.84905,94.2276 7.5,95C 9.86895,95.5359 11.8689,96.7026 13.5,98.5C 17.6632,104.824 21.8299,111.157 26,117.5C 26.6877,118.332 26.521,118.998 25.5,119.5C 24.2519,118.96 23.0852,118.293 22,117.5C 18.9376,111.77 15.1043,106.603 10.5,102C 9.03791,102.063 7.70458,102.729 6.5,104C 8.65725,105.912 10.9906,107.579 13.5,109C 12.8333,109.333 12.1667,109.667 11.5,110C 16.9698,114.464 21.3031,119.797 24.5,126C 28.7892,124.802 32.7892,125.469 36.5,128C 46.5,128.333 56.5,128.667 66.5,129C 49.775,135.424 48.1084,144.757 61.5,157C 53.0639,160.05 44.7306,163.384 36.5,167C 36.8346,168.164 36.8346,169.497 36.5,171C 39.8632,170.733 42.6966,169.233 45,166.5C 46.0495,167.517 47.2161,167.684 48.5,167C 56.0504,163.723 63.3838,160.223 70.5,156.5C 65.7741,148.97 66.6075,142.303 73,136.5C 79.9058,148.698 90.4058,153.531 104.5,151C 109.522,158.398 112.355,166.565 113,175.5C 113.442,173.321 114.442,172.655 116,173.5C 116.927,169.551 116.094,166.051 113.5,163C 114.517,161.951 114.684,160.784 114,159.5C 111.246,154.992 108.746,150.326 106.5,145.5C 95.5171,146.349 90.3504,141.349 91,130.5C 93.5791,132.347 96.4124,132.847 99.5,132C 95.5214,128.352 91.8547,124.352 88.5,120C 78.1454,113.493 66.812,109.659 54.5,108.5C 54.1924,107.692 53.6924,107.025 53,106.5C 54.215,98.2547 54.5483,89.9214 54,81.5C 53.4257,79.508 52.259,78.008 50.5,77C 54.5124,76.5664 57.6791,78.0664 60,81.5C 61.8049,85.3865 63.3049,89.3865 64.5,93.5C 66.5993,84.6802 63.9326,77.8469 56.5,73C 67.3196,75.4907 73.8196,82.324 76,93.5C 78.1343,91.4216 77.9677,89.5883 75.5,88C 75.9574,87.586 76.2907,87.086 76.5,86.5C 75.2943,84.2062 74.2943,81.8728 73.5,79.5C 76.1667,81.8333 78.8333,84.1667 81.5,86.5C 85.439,92.1082 90.1057,97.1082 95.5,101.5C 96.8549,104.188 98.8549,106.188 101.5,107.5C 105.105,112.774 109.438,117.441 114.5,121.5C 114.5,122.167 114.833,122.5 115.5,122.5C 119.105,127.774 123.438,132.441 128.5,136.5C 131.167,140.5 134.5,143.833 138.5,146.5C 140.557,150.067 143.223,153.234 146.5,156C 121.767,185.568 90.7674,194.568 53.5,183C 26.6814,170.844 10.1814,150.344 4,121.5C 3.33333,82.8333 3.33333,44.1667 4,5.5C 6.0367,7.70587 8.20337,9.70587 10.5,11.5 Z"/></g>
<g><path style="opacity:1" fill="#000000" d="M 16.5,17.5 C 18.8333,19.1667 20.8333,21.1667 22.5,23.5C 19.5,22.5 17.5,20.5 16.5,17.5 Z"/></g>
<g><path style="opacity:1" fill="#000000" d="M 93.5,34.5 C 92.1667,33.1667 90.8333,31.8333 89.5,30.5C 89.3505,29.448 89.5172,28.448 90,27.5C 91.705,29.5766 92.8717,31.91 93.5,34.5 Z"/></g>
<g><path style="opacity:1" fill="#000000" d="M 128.5,34.5 C 127.71,33.3915 127.21,32.0581 127,30.5C 124.392,35.3968 121.559,40.0635 118.5,44.5C 120.795,38.5765 123.628,32.9099 127,27.5C 128.352,29.5938 128.852,31.9272 128.5,34.5 Z"/></g>
<g><path style="opacity:1" fill="#0a0501" d="M 78.5,38.5 C 76.8712,37.3747 75.3712,36.0414 74,34.5C 73.8333,34.8333 73.6667,35.1667 73.5,35.5C 75.2378,39.049 76.5711,42.7157 77.5,46.5C 74.4686,41.1068 71.8019,35.4402 69.5,29.5C 69.8333,29.1667 70.1667,28.8333 70.5,28.5C 73.5939,31.5828 76.2606,34.9161 78.5,38.5 Z"/></g>
<g><path style="opacity:1" fill="#000000" d="M 112.5,36.5 C 111.108,34.7274 109.941,32.7274 109,30.5C 108.292,31.3805 107.458,32.0472 106.5,32.5C 106.522,30.1996 107.522,29.033 109.5,29C 111.202,31.2354 112.202,33.7354 112.5,36.5 Z"/></g>
<g><path style="opacity:1" fill="#000000" d="M 142.5,40.5 C 142.586,38.323 143.253,36.323 144.5,34.5C 144.03,33.537 143.363,33.537 142.5,34.5C 143.474,31.352 145.474,29.5187 148.5,29C 146.868,33.0996 144.868,36.9329 142.5,40.5 Z"/></g>
<g><path style="opacity:1" fill="#000000" d="M 89.5,30.5 C 89.1753,36.1305 87.8419,41.4639 85.5,46.5C 84.4777,46.1445 83.811,45.4778 83.5,44.5C 84.7498,44.4226 85.5831,43.756 86,42.5C 86.8806,38.2915 88.0473,34.2915 89.5,30.5 Z"/></g>
<g><path style="opacity:1" fill="#fe9900" d="M 89.5,30.5 C 90.8333,31.8333 92.1667,33.1667 93.5,34.5C 94.2703,37.4965 95.6036,40.1632 97.5,42.5C 97.5216,44.8004 98.5216,45.967 100.5,46C 102.202,43.7646 103.202,41.2646 103.5,38.5C 105.539,37.089 106.539,35.089 106.5,32.5C 107.458,32.0472 108.292,31.3805 109,30.5C 109.941,32.7274 111.108,34.7274 112.5,36.5C 113.408,40.2293 115.074,43.5627 117.5,46.5C 118.298,46.0431 118.631,45.3764 118.5,44.5C 121.559,40.0635 124.392,35.3968 127,30.5C 127.21,32.0581 127.71,33.3915 128.5,34.5C 128.294,37.4951 128.96,40.1617 130.5,42.5C 130.632,47.439 131.965,47.7723 134.5,43.5C 136.587,42.4154 137.92,40.7488 138.5,38.5C 140.264,37.674 141.598,36.3407 142.5,34.5C 143.363,33.537 144.03,33.537 144.5,34.5C 143.253,36.323 142.586,38.323 142.5,40.5C 141.069,41.7804 140.402,43.4471 140.5,45.5C 138.393,48.0567 137.059,51.0567 136.5,54.5C 135.609,55.2613 134.942,56.2613 134.5,57.5C 133.311,58.4287 131.978,58.762 130.5,58.5C 115.313,55.8512 99.9795,55.8512 84.5,58.5C 83.2613,58.0576 82.2613,57.3909 81.5,56.5C 80.7365,52.8632 79.4032,49.5299 77.5,46.5C 76.5711,42.7157 75.2378,39.049 73.5,35.5C 73.6667,35.1667 73.8333,34.8333 74,34.5C 75.3712,36.0414 76.8712,37.3747 78.5,38.5C 78.5,39.1667 78.8333,39.5 79.5,39.5C 80.0798,41.7488 81.4131,43.4154 83.5,44.5C 83.811,45.4778 84.4777,46.1445 85.5,46.5C 87.8419,41.4639 89.1753,36.1305 89.5,30.5 Z"/></g>
<g><path style="opacity:1" fill="#000000" d="M 106.5,32.5 C 106.539,35.089 105.539,37.089 103.5,38.5C 103.992,36.1815 104.992,34.1815 106.5,32.5 Z"/></g>
<g><path style="opacity:1" fill="#000000" d="M 128.5,34.5 C 130.04,36.8383 130.706,39.5049 130.5,42.5C 128.96,40.1617 128.294,37.4951 128.5,34.5 Z"/></g>
<g><path style="opacity:1" fill="#000000" d="M 34.5,36.5 C 37.9031,38.8998 40.5698,41.8998 42.5,45.5C 39.0969,43.1002 36.4302,40.1002 34.5,36.5 Z"/></g>
<g><path style="opacity:1" fill="#000000" d="M 103.5,38.5 C 103.202,41.2646 102.202,43.7646 100.5,46C 98.5216,45.967 97.5216,44.8004 97.5,42.5C 98.4584,42.9528 99.2917,43.6195 100,44.5C 100.941,42.2726 102.108,40.2726 103.5,38.5 Z"/></g>
<g><path style="opacity:1" fill="#000000" d="M 138.5,38.5 C 137.92,40.7488 136.587,42.4154 134.5,43.5C 135.08,41.2512 136.413,39.5846 138.5,38.5 Z"/></g>
<g><path style="opacity:1" fill="#000000" d="M 79.5,39.5 C 81.5869,40.5846 82.9202,42.2512 83.5,44.5C 81.4131,43.4154 80.0798,41.7488 79.5,39.5 Z"/></g>
<g><path style="opacity:1" fill="#000000" d="M 140.5,45.5 C 139.941,48.9433 138.607,51.9433 136.5,54.5C 137.059,51.0567 138.393,48.0567 140.5,45.5 Z"/></g>
<g><path style="opacity:1" fill="#000000" d="M 77.5,46.5 C 79.4032,49.5299 80.7365,52.8632 81.5,56.5C 79.0849,53.6601 77.7516,50.3267 77.5,46.5 Z"/></g>
<g><path style="opacity:1" fill="#000000" d="M 44.5,47.5 C 46.371,47.8588 47.871,48.8588 49,50.5C 53.7337,55.7255 58.2337,61.0589 62.5,66.5C 55.7967,60.7977 49.7967,54.4644 44.5,47.5 Z"/></g>
<g><path style="opacity:1" fill="#000000" d="M 136.5,54.5 C 136.671,56.9928 135.671,58.8261 133.5,60C 116.828,63.2672 100.162,63.2672 83.5,60C 82.0267,59.2904 81.3601,58.1238 81.5,56.5C 82.2613,57.3909 83.2613,58.0576 84.5,58.5C 99.9795,55.8512 115.313,55.8512 130.5,58.5C 131.978,58.762 133.311,58.4287 134.5,57.5C 134.942,56.2613 135.609,55.2613 136.5,54.5 Z"/></g>
<g><path style="opacity:1" fill="#fe9900" d="M 130.5,58.5 C 129.391,59.29 128.058,59.79 126.5,60C 120.5,60.1667 114.5,60.3333 108.5,60.5C 101.424,60.6104 94.4244,60.1104 87.5,59C 101.829,58.5001 116.163,58.3334 130.5,58.5 Z"/></g>
<g><path style="opacity:1" fill="#000000" d="M 62.5,66.5 C 65.0562,67.5434 67.2228,69.2101 69,71.5C 73.4012,76.3925 77.5678,81.3925 81.5,86.5C 78.8333,84.1667 76.1667,81.8333 73.5,79.5C 74.2943,81.8728 75.2943,84.2062 76.5,86.5C 76.2907,87.086 75.9574,87.586 75.5,88C 77.9677,89.5883 78.1343,91.4216 76,93.5C 73.8196,82.324 67.3196,75.4907 56.5,73C 63.9326,77.8469 66.5993,84.6802 64.5,93.5C 63.3049,89.3865 61.8049,85.3865 60,81.5C 57.6791,78.0664 54.5124,76.5664 50.5,77C 52.259,78.008 53.4257,79.508 54,81.5C 54.5483,89.9214 54.215,98.2547 53,106.5C 53.6924,107.025 54.1924,107.692 54.5,108.5C 66.812,109.659 78.1454,113.493 88.5,120C 91.8547,124.352 95.5214,128.352 99.5,132C 96.4124,132.847 93.5791,132.347 91,130.5C 90.3504,141.349 95.5171,146.349 106.5,145.5C 108.746,150.326 111.246,154.992 114,159.5C 114.684,160.784 114.517,161.951 113.5,163C 116.094,166.051 116.927,169.551 116,173.5C 114.442,172.655 113.442,173.321 113,175.5C 112.355,166.565 109.522,158.398 104.5,151C 90.4058,153.531 79.9058,148.698 73,136.5C 66.6075,142.303 65.7741,148.97 70.5,156.5C 63.3838,160.223 56.0504,163.723 48.5,167C 47.2161,167.684 46.0495,167.517 45,166.5C 42.6966,169.233 39.8632,170.733 36.5,171C 36.8346,169.497 36.8346,168.164 36.5,167C 44.7306,163.384 53.0639,160.05 61.5,157C 48.1084,144.757 49.775,135.424 66.5,129C 56.5,128.667 46.5,128.333 36.5,128C 32.7892,125.469 28.7892,124.802 24.5,126C 21.3031,119.797 16.9698,114.464 11.5,110C 12.1667,109.667 12.8333,109.333 13.5,109C 10.9906,107.579 8.65725,105.912 6.5,104C 7.70458,102.729 9.03791,102.063 10.5,102C 15.1043,106.603 18.9376,111.77 22,117.5C 23.0852,118.293 24.2519,118.96 25.5,119.5C 26.521,118.998 26.6877,118.332 26,117.5C 21.8299,111.157 17.6632,104.824 13.5,98.5C 11.8689,96.7026 9.86895,95.5359 7.5,95C 8.84905,94.2276 9.68238,93.0609 10,91.5C 13.1528,92.7859 15.8195,94.7859 18,97.5C 20.1609,102.492 22.8276,107.159 26,111.5C 27.308,108.27 28.308,104.936 29,101.5C 32.2516,96.6657 35.2516,91.6657 38,86.5C 38.4935,84.8659 38.6602,83.1992 38.5,81.5C 32.0895,81.559 25.7562,80.8923 19.5,79.5C 20.376,78.7492 21.376,78.2492 22.5,78C 20.7444,77.7978 19.0777,77.2978 17.5,76.5C 19.8456,73.0675 23.1789,71.5675 27.5,72C 31.0736,68.5263 35.4069,66.693 40.5,66.5C 39.5396,65.1877 39.7063,63.8544 41,62.5C 42.6667,65.1667 44.3333,67.8333 46,70.5C 48.3333,69.1667 50.6667,67.8333 53,66.5C 56.2018,66.8184 59.3684,67.9851 62.5,70C 64.6089,71.1411 66.4422,72.6411 68,74.5C 68.6667,73.8333 68.6667,73.1667 68,72.5C 65.91,70.5837 64.0767,68.5837 62.5,66.5 Z"/></g>
<g><path style="opacity:1" fill="#fe9900" d="M 73.5,79.5 C 71.9719,79.4827 71.4719,78.816 72,77.5C 72.7172,78.0442 73.2172,78.7109 73.5,79.5 Z"/></g>
<g><path style="opacity:1" fill="#000000" d="M 81.5,86.5 C 86.8943,90.8918 91.561,95.8918 95.5,101.5C 90.1057,97.1082 85.439,92.1082 81.5,86.5 Z"/></g>
<g><path style="opacity:1" fill="#000000" d="M 101.5,107.5 C 106.562,111.559 110.895,116.226 114.5,121.5C 109.438,117.441 105.105,112.774 101.5,107.5 Z"/></g>
<g><path style="opacity:1" fill="#fefffe" d="M -0.5,117.5 C 6.73062,157.397 30.064,182.064 69.5,191.5C 46.1667,191.5 22.8333,191.5 -0.5,191.5C -0.5,166.833 -0.5,142.167 -0.5,117.5 Z"/></g>
<g><path style="opacity:1" fill="#fefffe" d="M 165.5,119.5 C 165.5,143.5 165.5,167.5 165.5,191.5C 142.167,191.5 118.833,191.5 95.5,191.5C 104.002,189.388 112.336,186.554 120.5,183C 125.672,179.915 130.672,176.581 135.5,173C 151.89,158.716 161.89,140.883 165.5,119.5 Z"/></g>
<g><path style="opacity:1" fill="#000000" d="M 115.5,122.5 C 120.562,126.559 124.895,131.226 128.5,136.5C 123.438,132.441 119.105,127.774 115.5,122.5 Z"/></g>
</svg>

<svg xmlns="http://www.w3.org/2000/svg" width="166" height="192" style="shape-rendering:geometricPrecision;text-rendering:geometricPrecision;image-rendering:optimizeQuality;fill-rule:evenodd;clip-rule:evenodd"><path style="opacity:1" d="M-.5-.5h166v120c-3.61 21.383-13.61 39.216-30 53.5a179.617 179.617 0 0 1-15 10 157.946 157.946 0 0 1-25 8.5h-26c-39.436-9.436-62.77-34.103-70-74V-.5z"/><path style="opacity:1" fill="#003265" d="M138.5 146.5c-4-2.667-7.333-6-10-10-3.605-5.274-7.938-9.941-13-14-.667 0-1-.333-1-1-3.605-5.274-7.938-9.941-13-14-2.645-1.312-4.645-3.312-6-6-3.939-5.608-8.606-10.608-14-15a255.307 255.307 0 0 0-12.5-15c-1.777-2.29-3.944-3.957-6.5-5a294.452 294.452 0 0 0-13.5-16c-1.129-1.641-2.629-2.641-4.5-3-1-.333-1.667-1-2-2-1.93-3.6-4.597-6.6-8-9a55.727 55.727 0 0 1-12-13 25.635 25.635 0 0 0-6-6 25.635 25.635 0 0 1-6-6C9.118 8.606 7.118 6.106 4.5 4c52.332-.5 104.666-.667 157-.5.167 39.335 0 78.668-.5 118-1.679 12.349-6.346 23.349-14 33a95.356 95.356 0 0 0-8.5-8z"/><path style="opacity:1" fill="#fe9800" d="M10.5 11.5a25.635 25.635 0 0 0 6 6c1 3 3 5 6 6a55.727 55.727 0 0 0 12 13c1.93 3.6 4.597 6.6 8 9 .333 1 1 1.667 2 2a121.221 121.221 0 0 0 18 19c1.577 2.084 3.41 4.084 5.5 6 .667.667.667 1.333 0 2a18.78 18.78 0 0 0-5.5-4.5c-3.132-2.015-6.298-3.182-9.5-3.5l-7 4-5-8c-1.294 1.354-1.46 2.688-.5 4-5.093.193-9.426 2.026-13 5.5-4.321-.433-7.654 1.067-10 4.5a14.73 14.73 0 0 0 5 1.5 6.807 6.807 0 0 0-3 1.5 83.637 83.637 0 0 0 19 2c.16 1.7-.007 3.366-.5 5a169.55 169.55 0 0 1-9 15 56.087 56.087 0 0 1-3 10 72.374 72.374 0 0 1-8-14c-2.18-2.714-4.847-4.714-8-6-.318 1.56-1.151 2.728-2.5 3.5 2.369.536 4.369 1.703 6 3.5 4.163 6.324 8.33 12.657 12.5 19 .688.832.521 1.498-.5 2a18.083 18.083 0 0 1-3.5-2A65.373 65.373 0 0 0 10.5 102c-1.462.063-2.795.729-4 2a40.937 40.937 0 0 0 7 5l-2 1c5.47 4.464 9.803 9.797 13 16 4.29-1.198 8.29-.531 12 2l30 1c-16.725 6.424-18.392 15.757-5 28a401.66 401.66 0 0 0-25 10c.335 1.164.335 2.497 0 4 3.363-.267 6.197-1.767 8.5-4.5 1.05 1.017 2.216 1.184 3.5.5a336.1 336.1 0 0 0 22-10.5c-4.726-7.53-3.892-14.197 2.5-20 6.906 12.198 17.406 17.031 31.5 14.5 5.022 7.398 7.855 15.565 8.5 24.5.442-2.179 1.442-2.845 3-2 .927-3.949.094-7.449-2.5-10.5 1.017-1.049 1.184-2.216.5-3.5a140.729 140.729 0 0 1-7.5-14c-10.983.849-16.15-4.151-15.5-15 2.58 1.847 5.412 2.347 8.5 1.5a94.585 94.585 0 0 1-11-12c-10.355-6.507-21.688-10.341-34-11.5a4.451 4.451 0 0 0-1.5-2 118.293 118.293 0 0 0 1-25c-.574-1.992-1.741-3.492-3.5-4.5 4.012-.434 7.18 1.066 9.5 4.5a84.265 84.265 0 0 1 4.5 12c2.1-8.82-.567-15.653-8-20.5 10.82 2.49 17.32 9.324 19.5 20.5 2.134-2.078 1.968-3.912-.5-5.5.457-.414.79-.914 1-1.5a47.313 47.313 0 0 1-3-7l8 7c3.939 5.608 8.606 10.608 14 15 1.355 2.688 3.355 4.688 6 6 3.605 5.274 7.938 9.941 13 14 0 .667.333 1 1 1 3.605 5.274 7.938 9.941 13 14 2.667 4 6 7.333 10 10 2.057 3.567 4.723 6.734 8 9.5-24.733 29.568-55.733 38.568-93 27-26.819-12.156-43.319-32.656-49.5-61.5a3364.233 3364.233 0 0 1 0-116 54.557 54.557 0 0 0 6.5 6z"/><path style="opacity:1" d="M16.5 17.5a25.635 25.635 0 0 1 6 6c-3-1-5-3-6-6zM93.5 34.5l-4-4a4.932 4.932 0 0 1 .5-3 17.343 17.343 0 0 1 3.5 7zM128.5 34.5c-.79-1.108-1.29-2.442-1.5-4a143.315 143.315 0 0 1-8.5 14 101.16 101.16 0 0 1 8.5-17c1.352 2.094 1.852 4.427 1.5 7z"/><path style="opacity:1" fill="#0a0501" d="M78.5 38.5a25.15 25.15 0 0 1-4.5-4l-.5 1a54.482 54.482 0 0 1 4 11 131.93 131.93 0 0 1-8-17l1-1c3.094 3.083 5.76 6.416 8 10z"/><path style="opacity:1" d="M112.5 36.5c-1.392-1.773-2.559-3.773-3.5-6-.708.88-1.542 1.547-2.5 2 .022-2.3 1.022-3.467 3-3.5 1.702 2.235 2.702 4.735 3 7.5zM142.5 40.5c.086-2.177.753-4.177 2-6-.47-.963-1.137-.963-2 0 .974-3.148 2.974-4.981 6-5.5a62.56 62.56 0 0 1-6 11.5zM89.5 30.5c-.325 5.63-1.658 10.964-4 16-1.022-.355-1.689-1.022-2-2 1.25-.077 2.083-.744 2.5-2 .88-4.209 2.047-8.209 3.5-12z"/><path style="opacity:1" fill="#fe9900" d="m89.5 30.5 4 4c.77 2.996 2.104 5.663 4 8 .022 2.3 1.022 3.467 3 3.5 1.702-2.235 2.702-4.735 3-7.5 2.039-1.411 3.039-3.411 3-6 .958-.453 1.792-1.12 2.5-2 .941 2.227 2.108 4.227 3.5 6 .908 3.73 2.574 7.063 5 10 .798-.457 1.131-1.124 1-2a143.315 143.315 0 0 0 8.5-14c.21 1.558.71 2.892 1.5 4-.206 2.995.46 5.662 2 8 .132 4.939 1.465 5.272 4 1 2.087-1.085 3.42-2.751 4-5 1.764-.826 3.098-2.16 4-4 .863-.963 1.53-.963 2 0-1.247 1.823-1.914 3.823-2 6-1.431 1.28-2.098 2.947-2 5-2.107 2.557-3.441 5.557-4 9-.891.761-1.558 1.761-2 3-1.189.929-2.522 1.262-4 1-15.187-2.649-30.52-2.649-46 0-1.239-.442-2.239-1.11-3-2-.763-3.637-2.097-6.97-4-10a54.482 54.482 0 0 0-4-11l.5-1a25.15 25.15 0 0 0 4.5 4c0 .667.333 1 1 1 .58 2.249 1.913 3.915 4 5 .311.978.978 1.645 2 2 2.342-5.036 3.675-10.37 4-16z"/><path style="opacity:1" d="M106.5 32.5c.039 2.589-.961 4.589-3 6 .492-2.319 1.492-4.319 3-6zM128.5 34.5c1.54 2.338 2.206 5.005 2 8-1.54-2.338-2.206-5.005-2-8zM34.5 36.5c3.403 2.4 6.07 5.4 8 9-3.403-2.4-6.07-5.4-8-9zM103.5 38.5c-.298 2.765-1.298 5.265-3 7.5-1.978-.033-2.978-1.2-3-3.5.958.453 1.792 1.12 2.5 2 .941-2.227 2.108-4.227 3.5-6zM138.5 38.5c-.58 2.249-1.913 3.915-4 5 .58-2.249 1.913-3.915 4-5zM79.5 39.5c2.087 1.085 3.42 2.751 4 5-2.087-1.085-3.42-2.751-4-5zM140.5 45.5c-.559 3.443-1.893 6.443-4 9 .559-3.443 1.893-6.443 4-9zM77.5 46.5c1.903 3.03 3.237 6.363 4 10-2.415-2.84-3.748-6.173-4-10zM44.5 47.5c1.871.359 3.371 1.359 4.5 3a294.452 294.452 0 0 1 13.5 16 121.221 121.221 0 0 1-18-19zM136.5 54.5c.171 2.493-.829 4.326-3 5.5-16.672 3.267-33.338 3.267-50 0-1.473-.71-2.14-1.876-2-3.5.761.89 1.761 1.558 3 2 15.48-2.649 30.813-2.649 46 0 1.478.262 2.811-.071 4-1 .442-1.239 1.109-2.239 2-3z"/><path style="opacity:1" fill="#fe9900" d="M130.5 58.5c-1.109.79-2.442 1.29-4 1.5l-18 .5c-7.076.11-14.076-.39-21-1.5 14.329-.5 28.663-.667 43-.5z"/><path style="opacity:1" d="M62.5 66.5c2.556 1.043 4.723 2.71 6.5 5a255.307 255.307 0 0 1 12.5 15l-8-7a47.313 47.313 0 0 0 3 7 3.646 3.646 0 0 1-1 1.5c2.468 1.588 2.634 3.422.5 5.5-2.18-11.176-8.68-18.01-19.5-20.5 7.433 4.847 10.1 11.68 8 20.5a84.265 84.265 0 0 0-4.5-12c-2.32-3.434-5.488-4.934-9.5-4.5 1.759 1.008 2.926 2.508 3.5 4.5.548 8.421.215 16.755-1 25a4.451 4.451 0 0 1 1.5 2c12.312 1.159 23.645 4.993 34 11.5a94.585 94.585 0 0 0 11 12c-3.088.847-5.92.347-8.5-1.5-.65 10.849 4.517 15.849 15.5 15a140.729 140.729 0 0 0 7.5 14c.684 1.284.517 2.451-.5 3.5 2.594 3.051 3.427 6.551 2.5 10.5-1.558-.845-2.558-.179-3 2-.645-8.935-3.478-17.102-8.5-24.5-14.094 2.531-24.594-2.302-31.5-14.5-6.392 5.803-7.226 12.47-2.5 20a336.1 336.1 0 0 1-22 10.5c-1.284.684-2.45.517-3.5-.5-2.303 2.733-5.137 4.233-8.5 4.5.335-1.503.335-2.836 0-4a401.66 401.66 0 0 1 25-10c-13.392-12.243-11.725-21.576 5-28l-30-1c-3.71-2.531-7.71-3.198-12-2-3.197-6.203-7.53-11.536-13-16l2-1a40.937 40.937 0 0 1-7-5c1.205-1.271 2.538-1.937 4-2A65.373 65.373 0 0 1 22 117.5a18.083 18.083 0 0 0 3.5 2c1.021-.502 1.188-1.168.5-2a36854.26 36854.26 0 0 0-12.5-19c-1.631-1.797-3.631-2.964-6-3.5 1.349-.772 2.182-1.94 2.5-3.5 3.153 1.286 5.82 3.286 8 6a72.374 72.374 0 0 0 8 14 56.087 56.087 0 0 0 3-10 169.55 169.55 0 0 0 9-15c.493-1.634.66-3.3.5-5a83.637 83.637 0 0 1-19-2 6.807 6.807 0 0 1 3-1.5 14.73 14.73 0 0 1-5-1.5c2.346-3.433 5.679-4.933 10-4.5 3.574-3.474 7.907-5.307 13-5.5-.96-1.312-.794-2.646.5-4l5 8 7-4c3.202.318 6.368 1.485 9.5 3.5a18.78 18.78 0 0 1 5.5 4.5c.667-.667.667-1.333 0-2-2.09-1.916-3.923-3.916-5.5-6z"/><path style="opacity:1" fill="#fe9900" d="M73.5 79.5c-1.528-.017-2.028-.684-1.5-2 .717.544 1.217 1.21 1.5 2z"/><path style="opacity:1" d="M81.5 86.5c5.394 4.392 10.061 9.392 14 15-5.394-4.392-10.061-9.392-14-15zM101.5 107.5c5.062 4.059 9.395 8.726 13 14-5.062-4.059-9.395-8.726-13-14z"/><path style="opacity:1" fill="#fefffe" d="M-.5 117.5c7.23 39.897 30.564 64.564 70 74h-70v-74zM165.5 119.5v72h-70a157.946 157.946 0 0 0 25-8.5 179.617 179.617 0 0 0 15-10c16.39-14.284 26.39-32.117 30-53.5z"/><path style="opacity:1" d="M115.5 122.5c5.062 4.059 9.395 8.726 13 14-5.062-4.059-9.395-8.726-13-14z"/></svg>
